X: 110205
T: EARL OF HOME
Q: "Strathspey."
R:  Strathspey.
%R: strathspey, shottish
B: James Kerr "Merry Melodies" v.1 p.10 s.2 #5
Z: 2017 John Chambers <jc:trillian.mit.edu>
M: C
L: 1/8
K: G
|: ug |\
d<G vd>vB uA>uB c<e | d<G vd>vB ue>ucvd>uB |\
(3(cec) (3(BdB) A<B c<e | d<G d>B d<G B :|
|: ud |\
g>ab>g f>ga>f | g>ab>g a>fg>e |\
d<B g>B A>Bc>e | d<G d>B d<G B :|

%%sep 1 1 500
%%sep 1 1 500

